X:1
T: Strap the Razor
C:
R:Jig
Q:180
K:G
M:6/8
L:1/16
D2|:D2G2G2 B2A2G2|A2F2D2 F2D2C2|D2G2G2 B2A2G2|A2d2d2 c2A2G2|
D2G2G2 B2A2G2|A2F2D2 D4E2 =F2D2E2|F4G2 A2d2d2|c2A2G2:|
|:A2d2e2 =f4g2|a3_bag =f4d2|c2A2G2 =F2G2A2|A2d2d2 c2A2G2|
A2d2e2 =f4g2|a3_bag =f4d2|c2A2G2 =F2G2A2|A2d2d2 c2A2G2:|
